X: 39885
T: This Side Of Ten Minutes
R: reel
M: 4/4
K: Gdorian
|:GFDC (3DFG BA|GG,G,A, B,A,B,C|DFCF DB,GF|EC (3CCC EGBA|
GFdD (3cBA GF|GG,G,A, B,A,=B,C|DFCF DF_BA|1 G2 (3GGG G2 BA:|2 G2 (3GGG GABc||
|:dgdB c2 Bc|dGGF EGcE|Dddg c2 Bc|dDDE FEF^F|
[1 GABd c2 Bc|dGdF EccE|DFCF DFBA|G2 (3GGG GABc:|
[2 GG,G,A, B,A,=B,C|DFCF DG,GF|ECEG FDBA|G2 (3GGG G2||

